X: 6989
T: Chick'n Pig
R: reel
M: 4/4
K: Dmajor
|:E|AA GB AG EE|AA GB A3 E|AA GB AG Ec|BA BG A3:|
B|cc Ac BA GA|GA GF E3 E|AA GB AG EE|AA GB A3 B|
cc Ac BA Gd|ed cA B4|cB Ac BA Gc|BA BG A3||

